brandFactory_export/2.Regular/Mano Izquierda_2Regular.svg

<?xml version="1.0" encoding="UTF-8"?>
<svg width="24px" height="24px" viewBox="0 0 24 24" version="1.1" xmlns="http://www.w3.org/2000/svg" xmlns:xlink="http://www.w3.org/1999/xlink">
    <title>2.Regular/Mano Izquierda_2Regular</title>
    <g id="Symbols" stroke="none" stroke-width="1" fill="none" fill-rule="evenodd">
        <g id="2.Regular/Mano-Izquierda_2Regular" fill="#5CB615" fill-rule="nonzero">
            <path d="M19.8218487,20.2420168 C20.5983193,20.2420168 21.1663866,20.0605042 21.5495798,19.687395 C21.9260504,19.3210084 22.1411765,18.6722689 22.1411765,17.8991597 L22.1411765,8.59495798 C22.0504202,8.50420168 21.8084034,8.39327731 21.7243697,8.35630252 C21.3546218,8.18487395 20.2453782,7.64033613 18.7193277,6.8907563 L18.6521008,6.85714286 C16.4336134,5.76470588 13.6739496,4.40672269 11.9630252,3.60672269 C11.7747899,3.51932773 11.307563,3.34789916 11.0386555,3.68403361 C10.9109244,3.84201681 10.8840336,4.01344538 10.8840336,4.13109244 C10.8840336,4.31932773 10.9546218,4.51428571 11.0823529,4.67226891 C11.2907563,4.93445378 11.6268908,5.19327731 12.205042,5.53277311 C12.652426,5.79505182 12.9274132,6.27468067 12.9277311,6.79327731 C12.9277311,6.9210084 12.9109244,7.05210084 12.8739496,7.17983193 C12.6957983,7.81512605 12.1142857,8.25546218 11.4487395,8.25546218 L2.62857143,8.25546218 C1.66386555,8.31596639 1.47226891,8.71596639 1.47226891,9.34789916 C1.47226891,10.1176471 1.80504202,10.4470588 2.58823529,10.4470588 L6.07058824,10.4470588 C6.53109244,10.4470588 6.97142857,10.6621849 7.25042017,11.0285714 C7.44537815,11.2840336 7.54957983,11.5966387 7.54957983,11.912605 C7.54957983,12.0436975 7.52941176,12.1781513 7.49243697,12.3092437 C7.45882353,12.4336134 7.43865546,12.5747899 7.43865546,12.7361345 C7.43865546,13.502521 7.82857143,13.6134454 7.99327731,13.6605042 C8.37983193,13.7714286 8.70252101,14.0302521 8.8907563,14.3831933 C9.00504202,14.5983193 9.06218487,14.8302521 9.06218487,15.0689076 C9.06218487,15.2235294 9.03865546,15.3781513 8.98823529,15.5294118 C8.94453782,15.6638655 8.9210084,15.8218487 8.9210084,16.0033613 C8.9210084,16.7731092 9.29747899,16.8806723 9.48235294,16.9310924 C9.87226891,17.0386555 10.1983193,17.3008403 10.3865546,17.6537815 C10.5042017,17.8689076 10.5613445,18.1042017 10.5613445,18.3428571 C10.5613445,18.497479 10.5378151,18.6521008 10.487395,18.8033613 C10.4436975,18.9344538 10.4201681,19.092437 10.4201681,19.2705882 C10.4201681,19.9663866 10.7092437,20.2521008 11.4151261,20.2521008 L19.8218487,20.2521008 L19.8218487,20.2420168 Z M8.9512605,19.2605042 C8.9512605,18.9210084 8.99831933,18.6117647 9.09243697,18.3327731 C8.06386555,18.0470588 7.45210084,17.2033613 7.45210084,15.9932773 C7.45210084,15.6537815 7.49915966,15.3378151 7.59327731,15.0621849 C6.57142857,14.7731092 5.9697479,13.9327731 5.9697479,12.7294118 C5.9697479,12.4336134 6.00672269,12.1579832 6.07731092,11.9092437 L2.59495798,11.9092437 C0.994957983,11.9092437 0,10.9277311 0,9.34789916 C0,7.82857143 0.924369748,6.89747899 2.54117647,6.79327731 L2.59495798,6.79327731 C2.90420168,6.79327731 8.78655462,6.78991597 11.4554622,6.79327731 C10.7630252,6.38655462 10.2789916,6.02016807 9.92941176,5.57983193 C9.58655462,5.14957983 9.41176471,4.63529412 9.41176471,4.13109244 C9.41176471,3.64705882 9.5697479,3.1697479 9.88907563,2.77310924 C10.5142857,1.99327731 11.5798319,1.80168067 12.605042,2.28235294 C14.3428571,3.09915966 17.1361345,4.47394958 19.3815126,5.57983193 C20.7798319,6.26890756 21.9865546,6.86386555 22.3529412,7.03193277 C22.7327731,7.20672269 23.6235294,7.62016807 23.6235294,8.55798319 L23.6235294,17.902521 C23.6235294,19.0823529 23.2537815,20.087395 22.5848739,20.7361345 C21.9159664,21.3815126 20.9882353,21.707563 19.8218487,21.707563 L11.4252101,21.707563 C9.89915966,21.7042017 8.9512605,20.7663866 8.9512605,19.2605042 Z" id="Mano-Izquierda_2Regular"></path>
        </g>
    </g>
</svg>

<svg width="24" height="24" viewBox="0 0 24 24" xmlns="http://www.w3.org/2000/svg"><path d="M19.822 20.242c.776 0 1.344-.181 1.728-.555.376-.366.591-1.015.591-1.788V8.595c-.09-.09-.333-.202-.417-.239-.37-.171-1.479-.716-3.005-1.465l-.067-.034c-2.218-1.092-4.978-2.45-6.689-3.25-.188-.088-.655-.26-.924.077a.703.703 0 00-.155.447c0 .188.07.383.198.541.209.262.545.521 1.123.86a1.462 1.462 0 01.669 1.648 1.477 1.477 0 01-1.425 1.075h-8.82c-.965.061-1.157.461-1.157 1.093 0 .77.333 1.1 1.116 1.1h3.483c.46 0 .9.214 1.18.58.194.256.299.569.299.885 0 .13-.02.265-.058.396a1.627 1.627 0 00-.053.427c0 .767.39.877.554.925.387.11.71.37.898.722a1.45 1.45 0 01.097 1.146 1.535 1.535 0 00-.067.474c0 .77.376.878.561.928a1.466 1.466 0 011.005 1.872 1.49 1.49 0 00-.067.468c0 .695.29.981.995.981h8.407v-.01zm-10.87-.981c0-.34.046-.65.14-.928-1.028-.286-1.64-1.13-1.64-2.34 0-.34.047-.655.141-.93-1.022-.29-1.623-1.13-1.623-2.334 0-.295.037-.571.107-.82H2.595C.995 11.91 0 10.928 0 9.348c0-1.52.924-2.45 2.541-2.555h.054c.31 0 6.192-.003 8.86 0-.692-.406-1.176-.773-1.526-1.213a2.333 2.333 0 01-.517-1.449c0-.484.158-.961.477-1.358.625-.78 1.69-.971 2.716-.49 1.738.816 4.531 2.19 6.777 3.297 1.398.689 2.605 1.284 2.97 1.452.38.175 1.272.588 1.272 1.526v9.345c0 1.18-.37 2.184-1.04 2.833-.668.646-1.596.972-2.762.972h-8.397c-1.526-.004-2.474-.942-2.474-2.447z" fill="#5CB615" fill-rule="nonzero"/></svg>
